src/assets/img/icons/duotone-icons/Electric/Mixer.svg

<?xml version="1.0" encoding="UTF-8"?>
<svg width="24px" height="24px" viewBox="0 0 24 24" version="1.1" xmlns="http://www.w3.org/2000/svg" xmlns:xlink="http://www.w3.org/1999/xlink">
    <!-- Generator: Sketch 52.2 (67145) - http://www.bohemiancoding.com/sketch -->
    <title>Stockholm-icons / Electric / Mixer</title>
    <desc>Created with Sketch.</desc>
    <g id="Stockholm-icons-/-Electric-/-Mixer" stroke="none" stroke-width="1" fill="none" fill-rule="evenodd">
        <rect id="bound" x="0" y="0" width="24" height="24"></rect>
        <path d="M8.42265796,7.19586566 C8.29274899,7.06902235 8.24181036,6.88172419 8.28958307,6.7065576 L8.84282239,4.67801339 C9.00979535,4.06577924 9.54397158,3.62486362 10.1767564,3.5769679 L17.7994949,3 L18.8601551,4.06066017 C19.9316933,5.13219832 21.3708193,6.76044424 23.1775333,8.94539793 C23.6686011,9.53927189 23.7747948,10.3624484 23.4505211,11.0615052 L20.8919878,16.5770868 C20.8204632,16.7312766 20.7232524,16.8721885 20.6045081,16.9938028 C20.0257572,17.5865413 19.0760775,17.5978806 18.4833389,17.0191298 L8.42265796,7.19586566 Z M20.5421356,9.22081528 L17.7994949,5.56396103 C17.3684003,4.9891682 16.5529674,4.87267779 15.9781746,5.30377241 C15.9289273,5.3407079 15.8823637,5.38109231 15.8388348,5.4246212 C15.2530483,6.01040764 15.2530483,6.96015511 15.8388348,7.54594155 L19.0208153,10.7279221 C19.4113396,11.1184464 20.0445046,11.1184464 20.4350288,10.7279221 C20.8407637,10.3221872 20.886413,9.67985184 20.5421356,9.22081528 Z" id="Combined-Shape" fill="#335EEA"></path>
        <path d="M10.3766771,14.2317944 L12.0401418,15.8952592 C12.6526127,16.50773 12.6526127,17.5007414 12.0401418,18.1132123 L8.71321228,21.4401418 C8.10074145,22.0526126 7.10773005,22.0526126 6.49525923,21.4401418 L2.05935314,17.0042357 C1.44688232,16.3917649 1.44688232,15.3987535 2.05935314,14.7862827 L5.38628271,11.4593531 C5.99875353,10.8468823 6.99176493,10.8468823 7.60423575,11.4593531 L9.26770054,13.1228179 L10.9311653,11.4593531 L12.0401418,12.5683296 L10.3766771,14.2317944 Z M7.32699162,20.0539212 L10.6539212,16.7269916 L10.0994329,16.1725033 L6.77250336,19.4994329 L7.32699162,20.0539212 Z M5.66352684,18.3904564 L8.99045641,15.0635268 L8.43596815,14.5090386 L5.10903858,17.8359681 L5.66352684,18.3904564 Z M4.00006205,16.7269916 L7.32699162,13.400062 L6.77250336,12.8455738 L3.44557379,16.1725033 L4.00006205,16.7269916 Z" id="Combined-Shape" fill="#335EEA" opacity="0.3"></path>
    </g>
</svg>

<svg width="24" height="24" viewBox="0 0 24 24" xmlns="http://www.w3.org/2000/svg"><g fill="none" fill-rule="evenodd"><path d="M0 0h24v24H0z"/><path d="M8.423 7.196a.5.5 0 01-.133-.49l.553-2.028a1.5 1.5 0 011.334-1.101L17.799 3l1.061 1.06c1.072 1.072 2.51 2.7 4.318 4.885a2 2 0 01.273 2.117l-2.559 5.515a1.5 1.5 0 01-2.409.442L8.423 7.196zm12.12 2.025l-2.744-3.657a1.3 1.3 0 00-1.96-.14 1.5 1.5 0 000 2.122l3.182 3.182a1 1 0 001.414 0 1.153 1.153 0 00.107-1.507z" fill="#335EEA"/><path d="M10.377 14.232l1.663 1.663a1.568 1.568 0 010 2.218L8.713 21.44a1.568 1.568 0 01-2.218 0L2.06 17.004a1.568 1.568 0 010-2.218l3.327-3.327a1.568 1.568 0 012.218 0l1.664 1.664 1.663-1.664 1.11 1.11-1.664 1.663zm-3.05 5.822l3.327-3.327-.555-.554-3.326 3.326.554.555zM5.664 18.39l3.326-3.326-.554-.555-3.327 3.327.555.554zM4 16.727L7.327 13.4l-.554-.554-3.327 3.327.554.554z" fill="#335EEA" opacity=".3"/></g></svg>
